icons/taobao-line.svg

<svg xmlns="http://www.w3.org/2000/svg" width="24" height="24" fill="none"><g clip-path="url(#a)"><g><path fill="#121212" d="M17.172 14H14.5V15.375C15.05 15.154 15.653 14.885 16.312 14.565L16.23 14.327L17.172 14ZM18 13.713L18.12 13.671C18.761 15.522 19.154 16.683 19.305 17.171L17.393 17.761C17.319 17.521 17.177 17.089 16.966 16.468C10.885 19.353 8.29497 18.522 7.95797 14.561L9.95097 14.391C10.051 15.556 10.295 16.013 10.848 16.143C11.241 16.236 11.788 16.206 12.5 16.039V14H8.99997V12H9.51297L8.34597 10.61C9.38897 9.73404 10.204 8.78004 10.794 7.74604C10.276 7.88104 9.75697 8.02604 9.24297 8.18104C8.72898 8.93994 8.14148 9.64635 7.48897 10.29L6.08897 8.86204C7.36097 7.61404 8.42197 5.95204 9.26497 3.86804L11.119 4.61804C10.9692 4.9894 10.8091 5.35654 10.639 5.71904C14.341 4.78304 17.914 4.40204 19.777 5.03904C21 5.45704 21.696 6.43004 21.964 7.62304C22.134 8.37904 22.277 10.312 22.277 12.746C22.277 15.553 22.221 16.516 21.937 17.368C21.64 18.258 21.241 18.786 20.53 19.352C19.873 19.875 18.977 20.115 17.885 20.175C17.212 20.212 16.517 20.178 15.79 20.095C15.5909 20.0731 15.3922 20.0481 15.194 20.02L15.458 18.038C15.6432 18.0623 15.8285 18.0856 16.014 18.108C16.639 18.178 17.23 18.208 17.776 18.178C18.49 18.138 19.021 17.997 19.284 17.788C19.71 17.448 19.875 17.23 20.04 16.734C20.226 16.18 20.277 15.286 20.277 12.746C20.277 10.447 20.144 8.64404 20.013 8.06304C19.883 7.48604 19.603 7.09304 19.13 6.93104C17.923 6.51904 15.329 6.73704 12.478 7.34804L13.093 7.61004C12.963 7.91204 12.82 8.21004 12.663 8.50004H18V10.5H14.5V12H18V13.713ZM12.5 10.5H11.292C10.8335 11.0379 10.334 11.5394 9.79797 12H12.5V10.5ZM2.46097 10.062L3.53997 8.37704C4.60197 9.05604 6.47497 10.804 6.87797 11.538C8.11697 13.798 7.07497 15.714 3.75597 19.535L2.24597 18.224C4.93297 15.13 5.74597 13.634 5.12397 12.5C4.90997 12.11 3.26697 10.576 2.46197 10.062H2.46097ZM5.14097 7.58304C4.09197 7.58304 3.25797 6.82104 3.25297 5.89004C3.25297 4.95004 4.09297 4.18904 5.13997 4.18904C6.17997 4.18904 7.02297 4.94704 7.02297 5.89004C7.02297 6.82504 6.17997 7.58304 5.13997 7.58304H5.14097Z"/></g></g><defs><clipPath id="a"><rect width="24" height="24" fill="white"/></clipPath></defs></svg>

<svg width="24" height="24" fill="none" xmlns="http://www.w3.org/2000/svg"><g clip-path="url(#a)"><path d="M17.172 14H14.5v1.375c.55-.221 1.153-.49 1.812-.81l-.082-.238.942-.327Zm.828-.287.12-.042c.641 1.851 1.034 3.012 1.185 3.5l-1.912.59c-.074-.24-.216-.672-.427-1.293-6.081 2.885-8.671 2.054-9.008-1.907l1.993-.17c.1 1.165.344 1.622.897 1.752.393.093.94.063 1.652-.104V14H9v-2h.513l-1.167-1.39c1.043-.876 1.858-1.83 2.448-2.864-.518.135-1.037.28-1.551.435a13.952 13.952 0 0 1-1.754 2.109l-1.4-1.428c1.272-1.248 2.333-2.91 3.176-4.994l1.854.75c-.15.371-.31.739-.48 1.101 3.702-.936 7.275-1.317 9.138-.68 1.223.418 1.919 1.391 2.187 2.584.17.756.313 2.689.313 5.123 0 2.807-.056 3.77-.34 4.622-.297.89-.696 1.418-1.407 1.984-.657.523-1.553.763-2.645.823-.673.037-1.368.003-2.095-.08-.2-.022-.398-.047-.596-.075l.264-1.982c.185.024.37.048.556.07.625.07 1.216.1 1.762.07.714-.04 1.245-.181 1.508-.39.426-.34.591-.558.756-1.054.186-.554.237-1.448.237-3.988 0-2.299-.133-4.102-.264-4.683-.13-.577-.41-.97-.883-1.132-1.207-.412-3.801-.194-6.652.417l.615.262c-.13.302-.273.6-.43.89H18v2h-3.5V12H18v1.713ZM12.5 10.5h-1.208c-.458.538-.958 1.04-1.494 1.5H12.5v-1.5Zm-10.039-.438L3.54 8.377c1.062.679 2.935 2.427 3.338 3.161 1.239 2.26.197 4.176-3.122 7.997l-1.51-1.311c2.687-3.094 3.5-4.59 2.878-5.724-.214-.39-1.857-1.924-2.662-2.438h-.001Zm2.68-2.479c-1.049 0-1.883-.762-1.888-1.693 0-.94.84-1.701 1.887-1.701 1.04 0 1.883.758 1.883 1.701 0 .935-.843 1.693-1.883 1.693h.001Z" /></g><defs><clipPath id="a"><path fill="#fff" d="M0 0h24v24H0z"/></clipPath></defs></svg>
